X:85
T:Bonny Kate of Aberdeen THO3.085
O:England;London
M:C|
L:1/8
Z:vmp. Peter Dunk 2011.from a transcription by Fynn Titford-Mock 2006-9
B:Thompson's Compleat Collection of 200 Favourite Country Dances Vol. III.1765-72
Q:1/2=70
K:D
A<FE<D A<FE<D|B2 Bc d2 cB|A<FE<D A<FE<D|E>FG>A G2 FE|A<FE<D A<FE<D|
fgaf e2 dc|dfdA BdBG|AFED D4::e<dB<A e<dB<A|d2 cB c2 BA|B2 Bd c2 eg|
fdaf e2 fg|afed ecBA|BcdF E2 DC|DfdA BdBG|AFED D4:|

